; G-Code generated by Simplify3D(R) Version 4.1.2
; Apr 29, 2020 at 7:57:02 AM
; Settings Summary
;   processName,Process1
;   applyToModels,encoder-mount
;   profileName,Qidi Technology X-one (modified)
;   profileVersion,2016-10-28 08:00:00
;   baseProfile,
;   printMaterial,PLA
;   printQuality,Medium
;   printExtruders,
;   extruderName,Primary Extruder
;   extruderToolheadNumber,0
;   extruderDiameter,0.4
;   extruderAutoWidth,1
;   extruderWidth,0.48
;   extrusionMultiplier,0.9
;   extruderUseRetract,1
;   extruderRetractionDistance,2
;   extruderExtraRestartDistance,0
;   extruderRetractionZLift,0
;   extruderRetractionSpeed,1800
;   extruderUseCoasting,1
;   extruderCoastingDistance,0.2
;   extruderUseWipe,0
;   extruderWipeDistance,5
;   primaryExtruder,0
;   layerHeight,0.2
;   topSolidLayers,3
;   bottomSolidLayers,3
;   perimeterOutlines,2
;   printPerimetersInsideOut,1
;   startPointOption,2
;   startPointOriginX,0
;   startPointOriginY,0
;   sequentialIslands,0
;   spiralVaseMode,0
;   firstLayerHeightPercentage,120
;   firstLayerWidthPercentage,100
;   firstLayerUnderspeed,0.5
;   useRaft,0
;   raftExtruder,0
;   raftTopLayers,3
;   raftBaseLayers,2
;   raftOffset,3
;   raftSeparationDistance,0.14
;   raftTopInfill,100
;   aboveRaftSpeedMultiplier,0.3
;   useSkirt,0
;   skirtExtruder,0
;   skirtLayers,1
;   skirtOutlines,2
;   skirtOffset,4
;   usePrimePillar,0
;   primePillarExtruder,999
;   primePillarWidth,12
;   primePillarLocation,7
;   primePillarSpeedMultiplier,1
;   useOozeShield,0
;   oozeShieldExtruder,999
;   oozeShieldOffset,2
;   oozeShieldOutlines,1
;   oozeShieldSidewallShape,1
;   oozeShieldSidewallAngle,30
;   oozeShieldSpeedMultiplier,1
;   infillExtruder,0
;   internalInfillPattern,Rectilinear
;   externalInfillPattern,Rectilinear
;   infillPercentage,20
;   outlineOverlapPercentage,20
;   infillExtrusionWidthPercentage,100
;   minInfillLength,5
;   infillLayerInterval,1
;   internalInfillAngles,45,-45
;   overlapInternalInfillAngles,0
;   externalInfillAngles,45,-45
;   generateSupport,0
;   supportExtruder,0
;   supportInfillPercentage,30
;   supportExtraInflation,0
;   supportBaseLayers,0
;   denseSupportExtruder,0
;   denseSupportLayers,0
;   denseSupportInfillPercentage,70
;   supportLayerInterval,1
;   supportHorizontalPartOffset,0.3
;   supportUpperSeparationLayers,1
;   supportLowerSeparationLayers,1
;   supportType,0
;   supportGridSpacing,4
;   maxOverhangAngle,45
;   supportAngles,0
;   temperatureName,Primary Extruder,Heated Bed
;   temperatureNumber,0,0
;   temperatureSetpointCount,1,1
;   temperatureSetpointLayers,1,1
;   temperatureSetpointTemperatures,200,40
;   temperatureStabilizeAtStartup,1,1
;   temperatureHeatedBed,0,1
;   fanLayers,1,2
;   fanSpeeds,0,100
;   blipFanToFullPower,0
;   adjustSpeedForCooling,1
;   minSpeedLayerTime,15
;   minCoolingSpeedSlowdown,20
;   increaseFanForCooling,0
;   minFanLayerTime,45
;   maxCoolingFanSpeed,100
;   increaseFanForBridging,0
;   bridgingFanSpeed,100
;   use5D,1
;   relativeEdistances,0
;   allowEaxisZeroing,1
;   independentExtruderAxes,0
;   includeM10123,0
;   stickySupport,1
;   applyToolheadOffsets,0
;   gcodeXoffset,0
;   gcodeYoffset,0
;   gcodeZoffset,0
;   overrideMachineDefinition,1
;   machineTypeOverride,0
;   strokeXoverride,150
;   strokeYoverride,150
;   strokeZoverride,150
;   originOffsetXoverride,0
;   originOffsetYoverride,0
;   originOffsetZoverride,0
;   homeXdirOverride,-1
;   homeYdirOverride,-1
;   homeZdirOverride,-1
;   flipXoverride,1
;   flipYoverride,-1
;   flipZoverride,1
;   toolheadOffsets,0,0|0,0|0,0|0,0|0,0|0,0
;   overrideFirmwareConfiguration,1
;   firmwareTypeOverride,RepRap (Marlin/Repetier/Sprinter)
;   GPXconfigOverride,r2
;   baudRateOverride,115200
;   overridePrinterModels,1
;   printerModelsOverride
;   startingGcode,G28 ; home all axes,G1 Z0.25 ; position for priming,G92 E0 ; zero extruded length,G1 X100 E10 F600 ; prime
;   layerChangeGcode,
;   retractionGcode,
;   toolChangeGcode,
;   endingGcode,G28 X Y ; home x and y axes,G1 Z149 F1000 ; lower the bed,M106 S0 ; turn off cooling fan,M104 S0 ; turn off extruder,M140 S0 ; turn off bed,M84 ; disable motors
;   exportFileFormat,gcode
;   celebration,0
;   celebrationSong,Random Song
;   postProcessing,
;   defaultSpeed,3000
;   outlineUnderspeed,0.5
;   solidInfillUnderspeed,0.8
;   supportUnderspeed,0.8
;   rapidXYspeed,4800
;   rapidZspeed,1000
;   minBridgingArea,50
;   bridgingExtraInflation,0
;   bridgingExtrusionMultiplier,1
;   bridgingSpeedMultiplier,1
;   useFixedBridgingAngle,0
;   fixedBridgingAngle,0
;   applyBridgingToPerimeters,0
;   filamentDiameters,1.75|1.75|1.75|1.75|1.75|1.75
;   filamentPricesPerKg,46|46|46|46|46|46
;   filamentDensities,1.25|1.25|1.25|1.25|1.25|1.25
;   useMinPrintHeight,0
;   minPrintHeight,0
;   useMaxPrintHeight,0
;   maxPrintHeight,0
;   useDiaphragm,0
;   diaphragmLayerInterval,20
;   robustSlicing,1
;   mergeAllIntoSolid,0
;   onlyRetractWhenCrossingOutline,1
;   retractBetweenLayers,1
;   useRetractionMinTravel,0
;   retractionMinTravel,3
;   retractWhileWiping,0
;   onlyWipeOutlines,1
;   avoidCrossingOutline,0
;   maxMovementDetourFactor,3
;   toolChangeRetractionDistance,12
;   toolChangeExtraRestartDistance,-0.5
;   toolChangeRetractionSpeed,600
;   externalThinWallType,0
;   internalThinWallType,2
;   thinWallAllowedOverlapPercentage,10
;   singleExtrusionMinLength,1
;   singleExtrusionMinPrintingWidthPercentage,50
;   singleExtrusionMaxPrintingWidthPercentage,200
;   singleExtrusionEndpointExtension,0.2
;   horizontalSizeCompensation,0
G90
M82
M106 S0
M140 S40
M190 S40
M104 S200 T0
M109 S200 T0
G28 ; home all axes
G1 Z0.25 ; position for priming
G92 E0 ; zero extruded length
G1 X100 E10 F600 ; prime
; process Process1
; layer 1, Z = 0.240
T0
G92 E0.0000
G1 E-2.0000 F1800
; feature inner perimeter
; tool H0.240 W0.480
G1 Z0.240 F1000
G1 X50.720 Y50.720 F4800
G1 E0.0000 F1800
G92 E0.0000
G1 X99.280 Y50.720 E2.0932 F1125
G1 X99.280 Y99.280 E4.1864
G1 X50.720 Y99.280 E6.2796
G1 X50.720 Y50.920 E8.3641
G1 X50.720 Y50.720 F1125
; feature outer perimeter
G1 X50.240 Y50.240 F4800
G92 E0.0000
G1 X99.760 Y50.240 E2.1346 F750
G1 X99.760 Y99.760 E4.2691
G1 X50.240 Y99.760 E6.4037
G1 X50.240 Y50.440 E8.5296
G1 X50.240 Y50.240 F750
; feature inner perimeter
G1 X67.001 Y67.132 F4800
G92 E0.0000
G1 X66.534 Y67.636 E0.0296 F1125
G1 X66.302 Y67.912 E0.0451
G1 X65.882 Y68.461 E0.0750
G1 X65.496 Y69.036 E0.1048
G1 X65.307 Y69.349 E0.1206
G1 X64.835 Y70.249 E0.1644
G1 X64.683 Y70.590 E0.1805
G1 X64.430 Y71.235 E0.2103
G1 X64.218 Y71.894 E0.2402
G1 X64.124 Y72.242 E0.2557
G1 X63.976 Y72.913 E0.2853
G1 X63.915 Y73.262 E0.3006
G1 X63.866 Y73.613 E0.3159
G1 X63.801 Y74.302 E0.3457
G1 X63.780 Y75.000 E0.3758
G1 X63.801 Y75.698 E0.4059
G1 X63.866 Y76.387 E0.4357
G1 X63.915 Y76.738 E0.4510
G1 X63.976 Y77.087 E0.4663
G1 X64.124 Y77.758 E0.4959
G1 X64.218 Y78.106 E0.5114
G1 X64.428 Y78.759 E0.5410
G1 X64.554 Y79.097 E0.5565
G1 X64.825 Y79.728 E0.5861
G1 X64.982 Y80.052 E0.6017
G1 X65.309 Y80.656 E0.6313
G1 X65.496 Y80.964 E0.6468
G1 X65.882 Y81.539 E0.6766
G1 X66.302 Y82.088 E0.7065
G1 X66.534 Y82.364 E0.7220
G1 X67.001 Y82.868 E0.7516
G1 X67.257 Y83.121 E0.7671
G1 X67.769 Y83.579 E0.7967
G1 X68.048 Y83.807 E0.8122
G1 X68.604 Y84.219 E0.8421
G1 X69.185 Y84.596 E0.8719
G1 X69.496 Y84.777 E0.8875
G1 X70.109 Y85.098 E0.9173
G1 X70.741 Y85.380 E0.9471
G1 X71.072 Y85.510 E0.9624
G1 X71.406 Y85.629 E0.9777
G1 X72.068 Y85.830 E1.0076
G1 X72.741 Y85.991 E1.0374
G1 X73.090 Y86.056 E1.0527
G1 X73.440 Y86.111 E1.0680
G1 X74.128 Y86.186 E1.0978
G1 X74.820 Y86.219 E1.1276
G1 X75.180 Y86.219 E1.1432
G1 X75.872 Y86.186 E1.1730
G1 X76.565 Y86.111 E1.2031
G1 X77.248 Y85.993 E1.2329
G1 X77.594 Y85.916 E1.2482
G1 X77.937 Y85.829 E1.2635
G1 X78.600 Y85.627 E1.2934
G1 X79.248 Y85.385 E1.3232
G1 X79.574 Y85.245 E1.3385
G1 X79.896 Y85.096 E1.3538
G1 X80.504 Y84.777 E1.3834
G1 X80.815 Y84.596 E1.3989
G1 X81.396 Y84.219 E1.4287
G1 X81.952 Y83.807 E1.4586
G1 X82.231 Y83.579 E1.4741
G1 X82.743 Y83.121 E1.5037
G1 X82.999 Y82.868 E1.5192
G1 X83.466 Y82.364 E1.5488
G1 X83.698 Y82.088 E1.5644
G1 X84.118 Y81.539 E1.5942
G1 X84.504 Y80.964 E1.6240
G1 X84.691 Y80.656 E1.6396
G1 X85.018 Y80.052 E1.6692
G1 X85.175 Y79.728 E1.6847
G1 X85.448 Y79.092 E1.7145
G1 X85.680 Y78.439 E1.7444
G1 X85.785 Y78.095 E1.7599
G1 X85.954 Y77.429 E1.7895
G1 X86.026 Y77.076 E1.8050
G1 X86.134 Y76.392 E1.8349
G1 X86.199 Y75.698 E1.8649
G1 X86.220 Y75.005 E1.8948
G1 X86.215 Y74.651 E1.9101
G1 X86.198 Y74.297 E1.9254
G1 X86.134 Y73.608 E1.9552
G1 X86.026 Y72.924 E1.9850
G1 X85.954 Y72.571 E2.0006
G1 X85.785 Y71.905 E2.0302
G1 X85.680 Y71.561 E2.0457
G1 X85.448 Y70.908 E2.0755
G1 X85.175 Y70.272 E2.1054
G1 X85.018 Y69.948 E2.1209
G1 X84.690 Y69.344 E2.1505
G1 X84.504 Y69.036 E2.1660
G1 X84.118 Y68.461 E2.1959
G1 X83.698 Y67.912 E2.2257
G1 X83.466 Y67.636 E2.2412
G1 X82.999 Y67.132 E2.2708
G1 X82.743 Y66.879 E2.2864
G1 X82.231 Y66.421 E2.3160
G1 X81.952 Y66.193 E2.3315
G1 X81.396 Y65.781 E2.3613
G1 X80.815 Y65.404 E2.3912
G1 X80.504 Y65.223 E2.4067
G1 X79.891 Y64.902 E2.4365
G1 X79.259 Y64.619 E2.4664
G1 X78.928 Y64.490 E2.4817
G1 X78.594 Y64.371 E2.4969
G1 X77.932 Y64.170 E2.5268
G1 X77.259 Y64.009 E2.5566
G1 X76.910 Y63.944 E2.5719
G1 X76.560 Y63.889 E2.5872
G1 X75.872 Y63.814 E2.6170
G1 X75.180 Y63.781 E2.6469
G1 X74.820 Y63.781 E2.6624
G1 X74.128 Y63.814 E2.6923
G1 X73.435 Y63.889 E2.7223
G1 X72.752 Y64.007 E2.7522
G1 X72.406 Y64.084 E2.7675
G1 X72.063 Y64.171 E2.7827
G1 X71.400 Y64.373 E2.8126
G1 X70.752 Y64.615 E2.8424
G1 X70.426 Y64.755 E2.8577
G1 X70.104 Y64.904 E2.8730
G1 X69.496 Y65.223 E2.9026
G1 X69.185 Y65.404 E2.9181
G1 X68.604 Y65.781 E2.9480
G1 X68.048 Y66.193 E2.9778
G1 X67.769 Y66.421 E2.9933
G1 X67.257 Y66.879 E3.0229
G1 X67.143 Y66.992 E3.0298
G1 X67.001 Y67.132 F1125
; feature outer perimeter
G1 X67.345 Y67.466 F4800
G92 E0.0000
G1 X66.894 Y67.954 E0.0286 F750
G1 X66.677 Y68.212 E0.0432
G1 X66.272 Y68.741 E0.0719
G1 X65.901 Y69.294 E0.1006
G1 X65.725 Y69.585 E0.1153
G1 X65.267 Y70.459 E0.1578
G1 X65.125 Y70.776 E0.1728
G1 X64.882 Y71.397 E0.2015
G1 X64.679 Y72.031 E0.2302
G1 X64.590 Y72.357 E0.2448
G1 X64.447 Y73.005 E0.2734
G1 X64.390 Y73.336 E0.2879
G1 X64.343 Y73.669 E0.3024
G1 X64.281 Y74.332 E0.3311
G1 X64.260 Y75.000 E0.3599
G1 X64.281 Y75.668 E0.3887
G1 X64.343 Y76.331 E0.4174
G1 X64.390 Y76.664 E0.4319
G1 X64.447 Y76.995 E0.4463
G1 X64.590 Y77.643 E0.4750
G1 X64.679 Y77.969 E0.4895
G1 X64.882 Y78.602 E0.5182
G1 X65.000 Y78.918 E0.5327
G1 X65.261 Y79.529 E0.5614
G1 X65.409 Y79.833 E0.5759
G1 X65.726 Y80.417 E0.6046
G1 X65.901 Y80.706 E0.6191
G1 X66.272 Y81.259 E0.6478
G1 X66.677 Y81.788 E0.6765
G1 X66.894 Y82.046 E0.6911
G1 X67.345 Y82.534 E0.7197
G1 X67.586 Y82.771 E0.7343
G1 X68.081 Y83.214 E0.7629
G1 X68.343 Y83.428 E0.7775
G1 X68.878 Y83.824 E0.8062
G1 X69.437 Y84.187 E0.8349
G1 X69.728 Y84.357 E0.8495
G1 X70.319 Y84.666 E0.8782
G1 X70.927 Y84.938 E0.9069
G1 X71.240 Y85.060 E0.9214
G1 X71.556 Y85.173 E0.9359
G1 X72.193 Y85.367 E0.9646
G1 X72.841 Y85.521 E0.9933
G1 X73.172 Y85.583 E1.0078
G1 X73.503 Y85.635 E1.0223
G1 X74.166 Y85.708 E1.0510
G1 X74.831 Y85.739 E1.0797
G1 X75.169 Y85.739 E1.0943
G1 X75.834 Y85.708 E1.1230
G1 X76.498 Y85.635 E1.1518
G1 X77.155 Y85.522 E1.1805
G1 X77.483 Y85.449 E1.1950
G1 X77.808 Y85.366 E1.2094
G1 X78.446 Y85.172 E1.2382
G1 X79.070 Y84.939 E1.2669
G1 X79.379 Y84.807 E1.2814
G1 X79.683 Y84.665 E1.2958
G1 X80.272 Y84.357 E1.3245
G1 X80.563 Y84.187 E1.3390
G1 X81.122 Y83.824 E1.3677
G1 X81.657 Y83.428 E1.3965
G1 X81.919 Y83.214 E1.4110
G1 X82.414 Y82.771 E1.4397
G1 X82.654 Y82.534 E1.4542
G1 X83.106 Y82.046 E1.4828
G1 X83.323 Y81.788 E1.4974
G1 X83.728 Y81.259 E1.5261
G1 X84.099 Y80.706 E1.5548
G1 X84.274 Y80.417 E1.5694
G1 X84.591 Y79.833 E1.5980
G1 X84.739 Y79.529 E1.6126
G1 X85.001 Y78.916 E1.6413
G1 X85.224 Y78.289 E1.6700
G1 X85.322 Y77.966 E1.6846
G1 X85.486 Y77.322 E1.7132
G1 X85.554 Y76.991 E1.7278
G1 X85.657 Y76.333 E1.7565
G1 X85.719 Y75.668 E1.7853
G1 X85.740 Y75.002 E1.8140
G1 X85.735 Y74.666 E1.8285
G1 X85.719 Y74.330 E1.8430
G1 X85.657 Y73.667 E1.8717
G1 X85.554 Y73.009 E1.9004
G1 X85.486 Y72.678 E1.9150
G1 X85.322 Y72.034 E1.9436
G1 X85.224 Y71.711 E1.9582
G1 X85.001 Y71.084 E1.9869
G1 X84.739 Y70.471 E2.0156
G1 X84.591 Y70.167 E2.0301
G1 X84.274 Y69.583 E2.0588
G1 X84.099 Y69.294 E2.0733
G1 X83.728 Y68.741 E2.1021
G1 X83.323 Y68.212 E2.1308
G1 X83.106 Y67.954 E2.1453
G1 X82.654 Y67.466 E2.1740
G1 X82.414 Y67.229 E2.1885
G1 X81.919 Y66.786 E2.2172
G1 X81.657 Y66.572 E2.2317
G1 X81.122 Y66.176 E2.2604
G1 X80.563 Y65.813 E2.2891
G1 X80.272 Y65.643 E2.3037
G1 X79.681 Y65.334 E2.3324
G1 X79.073 Y65.062 E2.3611
G1 X78.760 Y64.940 E2.3756
G1 X78.444 Y64.827 E2.3901
G1 X77.807 Y64.633 E2.4188
G1 X77.159 Y64.479 E2.4475
G1 X76.828 Y64.417 E2.4620
G1 X76.497 Y64.365 E2.4765
G1 X75.834 Y64.292 E2.5052
G1 X75.169 Y64.261 E2.5339
G1 X74.831 Y64.261 E2.5485
G1 X74.166 Y64.292 E2.5772
G1 X73.502 Y64.365 E2.6060
G1 X72.845 Y64.478 E2.6347
G1 X72.517 Y64.551 E2.6492
G1 X72.192 Y64.634 E2.6637
G1 X71.554 Y64.828 E2.6924
G1 X70.930 Y65.061 E2.7211
G1 X70.621 Y65.193 E2.7356
G1 X70.317 Y65.335 E2.7501
G1 X69.728 Y65.643 E2.7787
G1 X69.437 Y65.813 E2.7933
G1 X68.878 Y66.176 E2.8220
G1 X68.343 Y66.572 E2.8507
G1 X68.081 Y66.786 E2.8652
G1 X67.586 Y67.229 E2.8939
G1 X67.488 Y67.326 E2.8998
G1 X67.345 Y67.466 F750
; feature inner perimeter
G1 X73.356 Y61.493 F4800
G92 E0.0000
G1 X73.507 Y61.644 E0.0092 F1125
G1 X73.784 Y61.861 E0.0244
G1 X74.107 Y62.035 E0.0402
G1 X74.440 Y62.150 E0.0554
G1 X74.649 Y62.193 E0.0646
G1 X75.000 Y62.222 E0.0798
G1 X75.351 Y62.193 E0.0949
G1 X75.560 Y62.150 E0.1041
G1 X75.879 Y62.040 E0.1187
G1 X76.070 Y61.946 E0.1279
G1 X76.365 Y61.754 E0.1430
G1 X76.635 Y61.505 E0.1589
G1 X76.851 Y61.227 E0.1740
G1 X76.961 Y61.044 E0.1832
G1 X77.102 Y60.722 E0.1984
G1 X77.192 Y60.366 E0.2142
G1 X77.222 Y60.000 E0.2301
G1 X77.193 Y59.649 E0.2452
G1 X77.150 Y59.440 E0.2544
G1 X77.035 Y59.107 E0.2696
G1 X76.861 Y58.784 E0.2854
G1 X76.644 Y58.507 E0.3006
G1 X76.493 Y58.356 E0.3098
G1 X76.216 Y58.139 E0.3250
G1 X75.906 Y57.972 E0.3402
G1 X75.707 Y57.894 E0.3494
G1 X75.366 Y57.808 E0.3645
G1 X75.015 Y57.779 E0.3797
G1 X74.802 Y57.788 E0.3889
G1 X74.454 Y57.846 E0.4041
G1 X74.107 Y57.965 E0.4199
G1 X73.784 Y58.139 E0.4357
G1 X73.507 Y58.356 E0.4509
G1 X73.356 Y58.507 E0.4601
G1 X73.149 Y58.773 E0.4746
G1 X73.039 Y58.956 E0.4838
G1 X72.898 Y59.278 E0.4990
G1 X72.808 Y59.634 E0.5148
G1 X72.776 Y60.015 E0.5313
G1 X72.841 Y60.531 E0.5537
G1 X72.965 Y60.893 E0.5702
G1 X73.139 Y61.216 E0.5860
G1 X73.233 Y61.336 E0.5926
G1 X73.356 Y61.493 F1125
; feature outer perimeter
G1 X73.716 Y61.175 F4800
G92 E0.0000
G1 X73.825 Y61.284 E0.0066 F750
G1 X74.048 Y61.457 E0.0188
G1 X74.301 Y61.594 E0.0312
G1 X74.568 Y61.686 E0.0434
G1 X74.718 Y61.717 E0.0500
G1 X75.000 Y61.741 E0.0622
G1 X75.282 Y61.717 E0.0744
G1 X75.432 Y61.686 E0.0810
G1 X75.695 Y61.596 E0.0930
G1 X75.833 Y61.528 E0.0996
G1 X76.069 Y61.374 E0.1118
G1 X76.281 Y61.179 E0.1242
G1 X76.454 Y60.956 E0.1363
G1 X76.533 Y60.824 E0.1430
G1 X76.646 Y60.565 E0.1551
G1 X76.717 Y60.287 E0.1675
G1 X76.741 Y60.000 E0.1799
G1 X76.717 Y59.718 E0.1921
G1 X76.686 Y59.568 E0.1987
G1 X76.594 Y59.301 E0.2109
G1 X76.457 Y59.048 E0.2233
G1 X76.284 Y58.825 E0.2355
G1 X76.175 Y58.716 E0.2421
G1 X75.952 Y58.543 E0.2543
G1 X75.704 Y58.408 E0.2665
G1 X75.560 Y58.352 E0.2731
G1 X75.287 Y58.283 E0.2853
G1 X75.005 Y58.260 E0.2975
G1 X74.851 Y58.266 E0.3041
G1 X74.573 Y58.312 E0.3163
G1 X74.301 Y58.406 E0.3287
G1 X74.048 Y58.543 E0.3410
G1 X73.825 Y58.716 E0.3532
G1 X73.716 Y58.825 E0.3599
G1 X73.546 Y59.044 E0.3718
G1 X73.467 Y59.176 E0.3784
G1 X73.353 Y59.435 E0.3906
G1 X73.283 Y59.713 E0.4030
G1 X73.259 Y60.005 E0.4156
G1 X73.311 Y60.423 E0.4338
G1 X73.406 Y60.699 E0.4464
G1 X73.543 Y60.952 E0.4588
G1 X73.593 Y61.017 E0.4623
G1 X73.716 Y61.175 F750
G92 E0.0000
G1 E-2.0000 F1800
; feature inner perimeter
G1 X63.054 Y80.539 F4800
G1 E0.0000 F1800
G92 E0.0000
