; G-Code generated by Simplify3D(R) Version 4.0.0
; Aug 6, 2017 at 9:15:35 AM
; Settings Summary
;   processName,Process1
;   applyToModels,pendulum-bob
;   profileName,Qidi Technology X-one
;   profileVersion,2016-10-28 08:00:00
;   baseProfile,
;   printMaterial,PLA
;   printQuality,Medium
;   printExtruders,
;   extruderName,Primary Extruder
;   extruderToolheadNumber,0
;   extruderDiameter,0.4
;   extruderAutoWidth,1
;   extruderWidth,0.48
;   extrusionMultiplier,0.9
;   extruderUseRetract,1
;   extruderRetractionDistance,2
;   extruderExtraRestartDistance,0
;   extruderRetractionZLift,0
;   extruderRetractionSpeed,1800
;   extruderUseCoasting,1
;   extruderCoastingDistance,0.2
;   extruderUseWipe,0
;   extruderWipeDistance,5
;   primaryExtruder,0
;   layerHeight,0.2
;   topSolidLayers,3
;   bottomSolidLayers,3
;   perimeterOutlines,2
;   printPerimetersInsideOut,1
;   startPointOption,2
;   startPointOriginX,0
;   startPointOriginY,0
;   sequentialIslands,0
;   spiralVaseMode,0
;   firstLayerHeightPercentage,120
;   firstLayerWidthPercentage,100
;   firstLayerUnderspeed,0.5
;   useRaft,0
;   raftExtruder,0
;   raftTopLayers,3
;   raftBaseLayers,2
;   raftOffset,3
;   raftSeparationDistance,0.14
;   raftTopInfill,100
;   aboveRaftSpeedMultiplier,0.3
;   useSkirt,1
;   skirtExtruder,0
;   skirtLayers,1
;   skirtOutlines,2
;   skirtOffset,4
;   usePrimePillar,0
;   primePillarExtruder,999
;   primePillarWidth,12
;   primePillarLocation,7
;   primePillarSpeedMultiplier,1
;   useOozeShield,0
;   oozeShieldExtruder,999
;   oozeShieldOffset,2
;   oozeShieldOutlines,1
;   oozeShieldSidewallShape,1
;   oozeShieldSidewallAngle,30
;   oozeShieldSpeedMultiplier,1
;   infillExtruder,0
;   internalInfillPattern,Rectilinear
;   externalInfillPattern,Rectilinear
;   infillPercentage,20
;   outlineOverlapPercentage,20
;   infillExtrusionWidthPercentage,100
;   minInfillLength,5
;   infillLayerInterval,1
;   internalInfillAngles,45,-45
;   overlapInternalInfillAngles,0
;   externalInfillAngles,45,-45
;   generateSupport,0
;   supportExtruder,0
;   supportInfillPercentage,30
;   supportExtraInflation,0
;   supportBaseLayers,0
;   denseSupportExtruder,0
;   denseSupportLayers,0
;   denseSupportInfillPercentage,70
;   supportLayerInterval,1
;   supportHorizontalPartOffset,0.3
;   supportUpperSeparationLayers,1
;   supportLowerSeparationLayers,1
;   supportType,0
;   supportGridSpacing,4
;   maxOverhangAngle,45
;   supportAngles,0
;   temperatureName,Primary Extruder,Heated Bed
;   temperatureNumber,0,0
;   temperatureSetpointCount,1,1
;   temperatureSetpointLayers,1,1
;   temperatureSetpointTemperatures,200,40
;   temperatureStabilizeAtStartup,1,1
;   temperatureHeatedBed,0,1
;   temperatureRelayBetweenLayers,0,0
;   temperatureRelayBetweenLoops,0,0
;   fanLayers,1,2
;   fanSpeeds,0,100
;   blipFanToFullPower,0
;   adjustSpeedForCooling,1
;   minSpeedLayerTime,15
;   minCoolingSpeedSlowdown,20
;   increaseFanForCooling,0
;   minFanLayerTime,45
;   maxCoolingFanSpeed,100
;   increaseFanForBridging,0
;   bridgingFanSpeed,100
;   use5D,1
;   relativeEdistances,0
;   allowEaxisZeroing,1
;   independentExtruderAxes,0
;   includeM10123,0
;   stickySupport,1
;   applyToolheadOffsets,0
;   gcodeXoffset,0
;   gcodeYoffset,0
;   gcodeZoffset,0
;   overrideMachineDefinition,1
;   machineTypeOverride,0
;   strokeXoverride,150
;   strokeYoverride,150
;   strokeZoverride,150
;   originOffsetXoverride,0
;   originOffsetYoverride,0
;   originOffsetZoverride,0
;   homeXdirOverride,-1
;   homeYdirOverride,-1
;   homeZdirOverride,-1
;   flipXoverride,1
;   flipYoverride,-1
;   flipZoverride,1
;   toolheadOffsets,0,0|0,0|0,0|0,0|0,0|0,0
;   overrideFirmwareConfiguration,1
;   firmwareTypeOverride,RepRap (Marlin/Repetier/Sprinter)
;   GPXconfigOverride,r2
;   baudRateOverride,115200
;   overridePrinterModels,1
;   printerModelsOverride
;   startingGcode,G28 ; home all axes,G1 Z0.25 ; position for priming,G92 E0 ; zero extruded length,G1 X100 E10 F600 ; prime
;   layerChangeGcode,
;   retractionGcode,
;   toolChangeGcode,
;   endingGcode,G28 X Y ; home x and y axes,G1 Z149 F1000 ; lower the bed,M106 S0 ; turn off cooling fan,M104 S0 ; turn off extruder,M140 S0 ; turn off bed,M84 ; disable motors
;   exportFileFormat,gcode
;   celebration,0
;   celebrationSong,Random Song
;   postProcessing,
;   defaultSpeed,3000
;   outlineUnderspeed,0.5
;   solidInfillUnderspeed,0.8
;   supportUnderspeed,0.8
;   rapidXYspeed,4800
;   rapidZspeed,1000
;   minBridgingArea,50
;   bridgingExtraInflation,0
;   bridgingExtrusionMultiplier,1
;   bridgingSpeedMultiplier,1
;   useFixedBridgingAngle,0
;   fixedBridgingAngle,0
;   applyBridgingToPerimeters,0
;   filamentDiameters,1.75|1.75|1.75|1.75|1.75|1.75
;   filamentPricesPerKg,46|46|46|46|46|46
;   filamentDensities,1.25|1.25|1.25|1.25|1.25|1.25
;   useMinPrintHeight,0
;   minPrintHeight,0
;   useMaxPrintHeight,0
;   maxPrintHeight,0
;   useDiaphragm,0
;   diaphragmLayerInterval,20
;   robustSlicing,1
;   mergeAllIntoSolid,0
;   onlyRetractWhenCrossingOutline,1
;   retractBetweenLayers,1
;   useRetractionMinTravel,0
;   retractionMinTravel,3
;   retractWhileWiping,0
;   onlyWipeOutlines,1
;   avoidCrossingOutline,0
;   maxMovementDetourFactor,3
;   toolChangeRetractionDistance,12
;   toolChangeExtraRestartDistance,-0.5
;   toolChangeRetractionSpeed,600
;   externalThinWallType,0
;   internalThinWallType,2
;   thinWallAllowedOverlapPercentage,10
;   singleExtrusionMinLength,1
;   singleExtrusionMinPrintingWidthPercentage,50
;   singleExtrusionMaxPrintingWidthPercentage,200
;   singleExtrusionEndpointExtension,0.2
;   horizontalSizeCompensation,0
G90
M82
M106 S0
M140 S40
M190 S40
M104 S200 T0
M109 S200 T0
G28 ; home all axes
G1 Z0.25 ; position for priming
G92 E0 ; zero extruded length
G1 X100 E10 F600 ; prime
G92 E0
G1 E-2.0000 F1800
G1 Z0.240 F1000
; process Process1
; layer 1, Z = 0.240
T0
; tool H0.240 W0.480
; skirt
G1 X64.324 Y64.866 F4800
G1 E0.0000 F540
G92 E0
G1 X65.149 Y64.062 E0.0497 F1500
G1 X65.162 Y64.049 E0.0504
G1 X65.329 Y63.903 E0.0600
G1 X65.343 Y63.891 E0.0608
G1 X66.362 Y63.082 E0.1169
G1 X66.377 Y63.071 E0.1177
G1 X66.553 Y62.945 E0.1270
G1 X66.568 Y62.935 E0.1278
G1 X67.530 Y62.316 E0.1771
G1 X67.544 Y62.307 E0.1778
G1 X67.723 Y62.204 E0.1867
G1 X67.738 Y62.196 E0.1875
G1 X68.754 Y61.671 E0.2367
G1 X68.770 Y61.664 E0.2375
G1 X68.967 Y61.574 E0.2468
G1 X68.983 Y61.567 E0.2476
G1 X70.193 Y61.087 E0.3037
G1 X70.210 Y61.081 E0.3045
G1 X70.421 Y61.010 E0.3141
G1 X70.439 Y61.004 E0.3149
G1 X71.547 Y60.691 E0.3645
G1 X71.565 Y60.686 E0.3653
G1 X71.777 Y60.637 E0.3747
G1 X71.795 Y60.634 E0.3755
G1 X73.077 Y60.407 E0.4316
G1 X73.095 Y60.404 E0.4324
G1 X73.313 Y60.377 E0.4419
G1 X73.331 Y60.375 E0.4427
G1 X74.480 Y60.289 E0.4923
G1 X74.498 Y60.288 E0.4931
G1 X74.719 Y60.283 E0.5026
G1 X74.737 Y60.283 E0.5034
G1 X76.038 Y60.318 E0.5595
G1 X76.056 Y60.318 E0.5603
G1 X76.273 Y60.335 E0.5697
G1 X76.291 Y60.337 E0.5704
G1 X77.426 Y60.481 E0.6197
G1 X77.443 Y60.484 E0.6205
G1 X77.646 Y60.519 E0.6294
G1 X77.663 Y60.523 E0.6301
G1 X78.778 Y60.774 E0.6794
G1 X78.795 Y60.778 E0.6802
G1 X79.003 Y60.836 E0.6894
G1 X79.020 Y60.841 E0.6902
G1 X80.256 Y61.250 E0.7463
G1 X80.273 Y61.257 E0.7471
G1 X80.481 Y61.338 E0.7567
G1 X80.498 Y61.345 E0.7575
G1 X81.548 Y61.817 E0.8072
G1 X81.565 Y61.825 E0.8079
G1 X81.759 Y61.924 E0.8173
G1 X81.774 Y61.932 E0.8181
G1 X82.903 Y62.582 E0.8742
G1 X82.918 Y62.591 E0.8750
G1 X83.103 Y62.711 E0.8845
G1 X83.118 Y62.721 E0.8853
G1 X84.054 Y63.393 E0.9350
G1 X84.068 Y63.404 E0.9357
G1 X84.240 Y63.542 E0.9452
G1 X84.254 Y63.554 E0.9460
G1 X85.229 Y64.416 E1.0021
G1 X85.243 Y64.428 E1.0029
G1 X85.398 Y64.581 E1.0123
G1 X85.411 Y64.594 E1.0131
G1 X86.193 Y65.439 E1.0627
G1 X86.205 Y65.453 E1.0635
G1 X86.348 Y65.624 E1.0731
G1 X86.359 Y65.639 E1.0739
G1 X87.141 Y66.680 E1.1300
G1 X87.152 Y66.694 E1.1308
G1 X87.272 Y66.872 E1.1401
G1 X87.282 Y66.887 E1.1409
G1 X87.875 Y67.864 E1.1901
G1 X87.883 Y67.879 E1.1909
G1 X87.982 Y68.061 E1.1998
G1 X87.990 Y68.076 E1.2005
G1 X88.488 Y69.106 E1.2498
G1 X88.496 Y69.122 E1.2506
G1 X88.580 Y69.322 E1.2600
G1 X88.587 Y69.339 E1.2607
G1 X89.034 Y70.562 E1.3169
G1 X89.040 Y70.579 E1.3176
G1 X89.106 Y70.790 E1.3272
G1 X89.111 Y70.807 E1.3279
G1 X89.395 Y71.924 E1.3776
G1 X89.399 Y71.941 E1.3784
G1 X89.443 Y72.157 E1.3879
G1 X89.446 Y72.175 E1.3886
G1 X89.639 Y73.462 E1.4448
G1 X89.641 Y73.480 E1.4455
G1 X89.662 Y73.698 E1.4550
G1 X89.664 Y73.715 E1.4557
G1 X89.719 Y74.859 E1.5051
G1 X89.720 Y74.876 E1.5058
G1 X89.720 Y75.085 E1.5148
G1 X89.720 Y75.102 E1.5156
G1 X89.664 Y76.279 E1.5663
G1 X89.663 Y76.297 E1.5671
G1 X89.641 Y76.518 E1.5767
G1 X89.639 Y76.536 E1.5775
G1 X89.446 Y77.825 E1.6337
G1 X89.443 Y77.843 E1.6344
G1 X89.399 Y78.059 E1.6439
G1 X89.395 Y78.076 E1.6447
G1 X89.111 Y79.193 E1.6944
G1 X89.106 Y79.210 E1.6952
G1 X89.040 Y79.421 E1.7047
G1 X89.034 Y79.438 E1.7055
G1 X88.587 Y80.661 E1.7616
G1 X88.580 Y80.678 E1.7623
G1 X88.496 Y80.878 E1.7717
G1 X88.488 Y80.894 E1.7725
G1 X87.990 Y81.924 E1.8218
G1 X87.982 Y81.939 E1.8225
G1 X87.883 Y82.121 E1.8315
G1 X87.875 Y82.136 E1.8322
G1 X87.282 Y83.112 E1.8814
G1 X87.272 Y83.127 E1.8822
G1 X87.152 Y83.306 E1.8915
G1 X87.141 Y83.320 E1.8923
G1 X86.359 Y84.361 E1.9484
G1 X86.348 Y84.376 E1.9492
G1 X86.205 Y84.547 E1.9588
G1 X86.193 Y84.560 E1.9596
G1 X85.415 Y85.402 E2.0090
G1 X85.403 Y85.414 E2.0097
G1 X85.255 Y85.559 E2.0186
G1 X85.243 Y85.571 E2.0194
G1 X84.393 Y86.331 E2.0685
G1 X84.380 Y86.342 E2.0693
G1 X84.216 Y86.475 E2.0783
G1 X84.203 Y86.485 E2.0791
G1 X83.153 Y87.255 E2.1352
G1 X83.138 Y87.266 E2.1360
G1 X82.947 Y87.391 E2.1458
G1 X82.931 Y87.401 E2.1466
G1 X81.926 Y87.988 E2.1968
G1 X81.909 Y87.997 E2.1976
G1 X81.700 Y88.105 E2.2078
G1 X81.682 Y88.113 E2.2086
G1 X80.345 Y88.711 E2.2718
G1 X80.327 Y88.718 E2.2726
G1 X80.115 Y88.800 E2.2824
G1 X80.098 Y88.806 E2.2832
G1 X79.006 Y89.163 E2.3327
G1 X78.990 Y89.168 E2.3334
G1 X78.790 Y89.223 E2.3423
G1 X78.774 Y89.227 E2.3431
G1 X77.663 Y89.477 E2.3922
G1 X77.646 Y89.481 E2.3929
G1 X77.443 Y89.516 E2.4018
G1 X77.426 Y89.519 E2.4025
G1 X76.291 Y89.663 E2.4518
G1 X76.273 Y89.665 E2.4526
G1 X76.056 Y89.682 E2.4620
G1 X76.038 Y89.682 E2.4628
G1 X74.737 Y89.717 E2.5189
G1 X74.719 Y89.717 E2.5197
G1 X74.498 Y89.712 E2.5292
G1 X74.480 Y89.711 E2.5300
G1 X73.331 Y89.625 E2.5796
G1 X73.313 Y89.623 E2.5804
G1 X73.095 Y89.596 E2.5899
G1 X73.077 Y89.593 E2.5907
G1 X71.795 Y89.366 E2.6468
G1 X71.777 Y89.363 E2.6476
G1 X71.565 Y89.314 E2.6570
G1 X71.547 Y89.309 E2.6578
G1 X70.439 Y88.996 E2.7074
G1 X70.421 Y88.990 E2.7082
G1 X70.210 Y88.919 E2.7178
G1 X70.193 Y88.913 E2.7186
G1 X68.983 Y88.433 E2.7747
G1 X68.967 Y88.426 E2.7755
G1 X68.770 Y88.336 E2.7848
G1 X68.754 Y88.329 E2.7855
G1 X67.730 Y87.800 E2.8352
G1 X67.714 Y87.791 E2.8360
G1 X67.520 Y87.678 E2.8457
G1 X67.504 Y87.668 E2.8465
G1 X66.415 Y86.955 E2.9026
G1 X66.401 Y86.945 E2.9034
G1 X66.228 Y86.820 E2.9126
G1 X66.214 Y86.809 E2.9133
G1 X65.316 Y86.087 E2.9630
G1 X65.302 Y86.075 E2.9638
G1 X65.133 Y85.923 E2.9736
G1 X65.119 Y85.910 E2.9744
G1 X64.195 Y84.993 E3.0305
G1 X64.183 Y84.981 E3.0313
G1 X64.041 Y84.825 E3.0403
G1 X64.029 Y84.812 E3.0411
G1 X63.301 Y83.934 E3.0903
G1 X63.291 Y83.920 E3.0910
G1 X63.167 Y83.755 E3.0999
G1 X63.157 Y83.741 E3.1006
G1 X62.512 Y82.794 E3.1500
G1 X62.502 Y82.778 E3.1508
G1 X62.387 Y82.588 E3.1604
G1 X62.378 Y82.573 E3.1612
G1 X61.759 Y81.427 E3.2173
G1 X61.750 Y81.411 E3.2181
G1 X61.657 Y81.216 E3.2274
G1 X61.650 Y81.200 E3.2282
G1 X61.208 Y80.145 E3.2775
G1 X61.202 Y80.129 E3.2782
G1 X61.132 Y79.935 E3.2871
G1 X61.126 Y79.919 E3.2878
G1 X60.787 Y78.827 E3.3371
G1 X60.782 Y78.810 E3.3379
G1 X60.728 Y78.600 E3.3472
G1 X60.724 Y78.583 E3.3480
G1 X60.462 Y77.307 E3.4041
G1 X60.459 Y77.289 E3.4049
G1 X60.426 Y77.070 E3.4145
G1 X60.423 Y77.052 E3.4153
G1 X60.308 Y75.906 E3.4649
G1 X60.306 Y75.888 E3.4657
G1 X60.295 Y75.669 E3.4751
G1 X60.295 Y75.651 E3.4759
G1 X60.295 Y74.349 E3.5320
G1 X60.295 Y74.331 E3.5328
G1 X60.306 Y74.112 E3.5423
G1 X60.308 Y74.094 E3.5430
G1 X60.423 Y72.948 E3.5927
G1 X60.426 Y72.930 E3.5935
G1 X60.459 Y72.711 E3.6030
G1 X60.462 Y72.693 E3.6038
G1 X60.724 Y71.417 E3.6599
G1 X60.728 Y71.400 E3.6607
G1 X60.782 Y71.190 E3.6701
G1 X60.787 Y71.173 E3.6708
G1 X61.126 Y70.081 E3.7201
G1 X61.132 Y70.065 E3.7208
G1 X61.202 Y69.870 E3.7298
G1 X61.208 Y69.855 E3.7305
G1 X61.650 Y68.800 E3.7798
G1 X61.657 Y68.784 E3.7805
G1 X61.750 Y68.589 E3.7899
G1 X61.759 Y68.573 E3.7906
G1 X62.378 Y67.427 E3.8468
G1 X62.387 Y67.412 E3.8475
G1 X62.502 Y67.222 E3.8571
G1 X62.512 Y67.206 E3.8579
G1 X63.160 Y66.254 E3.9076
G1 X63.170 Y66.239 E3.9083
G1 X63.302 Y66.065 E3.9178
G1 X63.314 Y66.051 E3.9185
G1 X64.150 Y65.053 E3.9747
G1 X64.162 Y65.040 E3.9754
G1 X64.188 Y65.012 E3.9771
G1 X64.311 Y64.879 F1500
G1 X64.324 Y64.866 F1500
G1 X64.659 Y65.210 F4800
G92 E0
G1 X64.663 Y65.205 E0.0003 F1500
G1 X65.480 Y64.410 E0.0494
G1 X65.484 Y64.406 E0.0497
G1 X65.641 Y64.267 E0.0587
G1 X65.646 Y64.264 E0.0589
G1 X66.656 Y63.462 E0.1145
G1 X66.661 Y63.458 E0.1148
G1 X66.828 Y63.339 E0.1236
G1 X66.833 Y63.335 E0.1239
G1 X67.785 Y62.723 E0.1727
G1 X67.789 Y62.720 E0.1729
G1 X67.959 Y62.622 E0.1813
G1 X67.964 Y62.620 E0.1816
G1 X68.969 Y62.101 E0.2304
G1 X68.974 Y62.098 E0.2306
G1 X69.160 Y62.014 E0.2394
G1 X69.165 Y62.011 E0.2397
G1 X70.364 Y61.536 E0.2953
G1 X70.370 Y61.534 E0.2955
G1 X70.569 Y61.466 E0.3046
G1 X70.575 Y61.464 E0.3048
G1 X71.672 Y61.154 E0.3540
G1 X71.678 Y61.153 E0.3542
G1 X71.879 Y61.107 E0.3631
G1 X71.885 Y61.105 E0.3634
G1 X73.155 Y60.880 E0.4190
G1 X73.161 Y60.879 E0.4193
G1 X73.367 Y60.854 E0.4282
G1 X73.373 Y60.853 E0.4285
G1 X74.510 Y60.768 E0.4776
G1 X74.516 Y60.768 E0.4779
G1 X74.724 Y60.763 E0.4869
G1 X74.730 Y60.763 E0.4871
G1 X76.020 Y60.797 E0.5427
G1 X76.026 Y60.797 E0.5430
G1 X76.230 Y60.813 E0.5518
G1 X76.236 Y60.814 E0.5521
G1 X77.360 Y60.957 E0.6009
G1 X77.365 Y60.957 E0.6011
G1 X77.558 Y60.991 E0.6096
G1 X77.563 Y60.992 E0.6098
G1 X78.667 Y61.241 E0.6586
G1 X78.673 Y61.242 E0.6588
G1 X78.869 Y61.297 E0.6676
G1 X78.874 Y61.298 E0.6679
G1 X80.099 Y61.704 E0.7235
G1 X80.104 Y61.706 E0.7237
G1 X80.301 Y61.783 E0.7328
G1 X80.306 Y61.785 E0.7331
G1 X81.346 Y62.252 E0.7822
G1 X81.352 Y62.255 E0.7825
G1 X81.535 Y62.349 E0.7913
G1 X81.540 Y62.351 E0.7916
G1 X82.658 Y62.995 E0.8472
G1 X82.663 Y62.998 E0.8474
G1 X82.838 Y63.111 E0.8564
G1 X82.843 Y63.114 E0.8567
G1 X83.769 Y63.780 E0.9058
G1 X83.774 Y63.783 E0.9061
G1 X83.936 Y63.913 E0.9150
G1 X83.941 Y63.917 E0.9153
G1 X84.907 Y64.772 E0.9709
G1 X84.911 Y64.776 E0.9712
G1 X85.058 Y64.920 E0.9800
G1 X85.063 Y64.924 E0.9803
G1 X85.837 Y65.761 E1.0294
G1 X85.841 Y65.766 E1.0297
G1 X85.976 Y65.927 E1.0388
G1 X85.979 Y65.932 E1.0390
G1 X86.754 Y66.963 E1.0946
G1 X86.757 Y66.968 E1.0949
G1 X86.872 Y67.137 E1.1037
G1 X86.875 Y67.142 E1.1039
G1 X87.462 Y68.109 E1.1527
G1 X87.465 Y68.114 E1.1529
G1 X87.558 Y68.285 E1.1614
G1 X87.560 Y68.290 E1.1616
G1 X88.054 Y69.309 E1.2104
G1 X88.056 Y69.315 E1.2107
G1 X88.136 Y69.504 E1.2195
G1 X88.138 Y69.510 E1.2198
G1 X88.582 Y70.721 E1.2754
G1 X88.584 Y70.727 E1.2756
G1 X88.645 Y70.926 E1.2846
G1 X88.647 Y70.932 E1.2849
G1 X88.929 Y72.036 E1.3340
G1 X88.930 Y72.042 E1.3343
G1 X88.971 Y72.246 E1.3432
G1 X88.972 Y72.252 E1.3435
G1 X89.163 Y73.527 E1.3991
G1 X89.164 Y73.533 E1.3994
G1 X89.184 Y73.739 E1.4082
G1 X89.185 Y73.745 E1.4085
G1 X89.240 Y74.877 E1.4574
G1 X89.240 Y74.883 E1.4576
G1 X89.240 Y75.079 E1.4661
G1 X89.240 Y75.085 E1.4663
G1 X89.185 Y76.250 E1.5166
G1 X89.185 Y76.256 E1.5169
G1 X89.164 Y76.465 E1.5259
G1 X89.163 Y76.471 E1.5262
G1 X88.972 Y77.748 E1.5818
G1 X88.971 Y77.754 E1.5821
G1 X88.930 Y77.958 E1.5911
G1 X88.929 Y77.964 E1.5913
G1 X88.647 Y79.068 E1.6405
G1 X88.645 Y79.074 E1.6407
G1 X88.584 Y79.273 E1.6497
G1 X88.582 Y79.279 E1.6500
G1 X88.138 Y80.490 E1.7056
G1 X88.136 Y80.496 E1.7058
G1 X88.056 Y80.685 E1.7147
G1 X88.054 Y80.691 E1.7149
G1 X87.560 Y81.710 E1.7637
G1 X87.558 Y81.715 E1.7640
G1 X87.464 Y81.886 E1.7724
